X:57
T:Maid of the Mill,The. TJD.57
M:6/8
L:1/8
Q:1/4=90
S:T.J.Dixon MS2, Lincolnshire, early 19thC
R:song
A:Lincolnshire, Holton le Moor
Z:vmp.R.Greig2010
K:G
D|DGG GBG|FGA d2F|EEE EFD|G3G2:|!
|:D|Ddd d>ed|dcBc2B|A>BAe2G|(G3F2)D|!
E>FEc2A|F>GAd2D|EEE E>FD|G3-G2:|]

